img/logo.svg

<svg width="64" height="22" viewBox="0 0 64 22" fill="none" xmlns="http://www.w3.org/2000/svg">
<g clip-path="url(#clip0_1_217)">
<path d="M20.2348 19.7343C20.8707 19.8257 21.4153 19.7167 21.7438 19.6517C21.937 19.613 22.111 19.5674 22.2604 19.5217C22.4413 19.4655 22.5624 19.2951 22.5502 19.1053L22.4465 17.5963C22.4307 17.3592 22.2147 17.187 21.9774 17.2239C21.9756 17.2239 21.9739 17.2239 21.9723 17.2239C21.7157 17.2625 21.5874 17.2819 21.433 17.2696C21.2607 17.2555 21.0289 17.2362 20.8462 17.0728C20.5826 16.8357 20.602 16.458 20.6055 16.3895V2.71159C20.6055 2.41997 20.37 2.18457 20.0784 2.18457H18.4412C18.1496 2.18457 17.9142 2.41997 17.9142 2.71159V17.0096C17.9018 17.2099 17.8544 18.3271 18.6573 19.079C19.2 19.5849 19.8694 19.6816 20.2348 19.7343Z" fill="white"/>
<path fill-rule="evenodd" clip-rule="evenodd" d="M13.5241 19.592H15.1104C15.4811 19.592 15.7358 19.2213 15.6023 18.8752L9.3589 2.69756C9.2816 2.49378 9.08486 2.36027 8.86701 2.36027H6.77125C6.55341 2.36027 6.35841 2.49378 6.27937 2.69756L0.035962 18.8752C-0.097549 19.2213 0.157176 19.592 0.527845 19.592H2.06322C2.28106 19.592 2.47606 19.4585 2.5551 19.2547L3.85157 15.8958C3.86387 15.8625 3.89725 15.8396 3.93413 15.8396H11.6532C11.6901 15.8396 11.7217 15.8625 11.7357 15.8958L13.0322 19.2547C13.1095 19.4567 13.3063 19.592 13.5241 19.592ZM4.85115 13.3135L7.69879 5.88427C7.7269 5.80872 7.83406 5.80872 7.86218 5.88427L10.7344 13.3135C10.7573 13.3714 10.7133 13.4329 10.6519 13.4329H4.93371C4.87047 13.4329 4.82832 13.3714 4.85115 13.3135Z" fill="white"/>
<path d="M35.9627 8.67396C36.8675 7.43196 38.394 6.44819 40.5425 6.44819C43.5429 6.44819 45.147 8.33668 45.147 11.5445V19.0632C45.147 19.3549 44.9114 19.5903 44.6198 19.5903H42.9826C42.691 19.5903 42.4556 19.3549 42.4556 19.0632V11.7517C42.4556 10.0951 41.6527 8.9568 39.7907 8.9568C38.1604 8.9568 36.9185 9.96516 36.5565 11.4408V19.0632C36.5565 19.3549 36.3211 19.5903 36.0295 19.5903H34.3922C34.1005 19.5903 33.8652 19.3549 33.8652 19.0632V11.7517C33.8652 10.0951 33.0624 8.9568 31.2003 8.9568C29.5699 8.9568 28.328 9.96516 27.9661 11.4408V19.0632C27.9661 19.3549 27.7307 19.5903 27.4391 19.5903H25.8019C25.5103 19.5903 25.2749 19.3549 25.2749 19.0632V9.96692C25.2749 9.37138 24.9639 9.11315 24.4475 9.11315C24.3965 9.11315 24.3473 9.11491 24.2999 9.11842C24.0083 9.13774 23.7553 8.92166 23.7341 8.6283L23.6463 7.31427C23.6305 7.06832 23.7868 6.84522 24.024 6.7732C24.335 6.67656 24.7091 6.60454 25.2749 6.60454C26.7241 6.60454 27.6288 7.30373 27.8888 8.46668C28.6653 7.32832 30.0109 6.44819 31.9505 6.44819C33.8934 6.44819 35.2652 7.25101 35.9627 8.67396Z" fill="white"/>
<path fill-rule="evenodd" clip-rule="evenodd" d="M62.2154 17.5145C62.4614 17.5145 62.7248 17.4618 62.9707 17.3915C63.2517 17.3037 63.5502 17.4618 63.638 17.7428L63.9191 18.6737C63.9894 18.9196 63.884 19.1655 63.6733 19.2885C63.0058 19.6398 62.2856 19.8154 61.6182 19.8154C60.09 19.8154 58.7903 18.9021 58.597 17.1456C57.6661 18.9021 55.9272 19.8154 53.7142 19.8154C49.7093 19.8154 47.4787 16.7065 47.4787 13.1409C47.4787 9.57527 49.6568 6.36094 53.6789 6.36094C55.8746 6.36094 57.5081 7.2743 58.3336 8.83754V7.20404C58.3336 6.90545 58.5619 6.67711 58.8606 6.67711H60.3009C60.5994 6.67711 60.8279 6.90545 60.8279 7.20404V15.9863C60.8279 17.0402 61.4777 17.5145 62.2154 17.5145ZM50.008 13.0882C50.008 15.7053 51.6591 17.532 54.1181 17.532C56.542 17.532 58.2809 15.7229 58.2809 13.0882C58.2809 10.4535 56.5771 8.64434 54.083 8.64434C51.4132 8.64434 50.008 10.6818 50.008 13.0882Z" fill="white"/>
</g>
<defs>
<clipPath id="clip0_1_217">
<rect width="64" height="22" fill="white"/>
</clipPath>
</defs>
</svg>

<svg width="64" height="22" fill="none" xmlns="http://www.w3.org/2000/svg"><g clip-path="url(#a)" fill="#fff"><path d="M20.235 19.734c.636.092 1.18-.017 1.509-.082.193-.039.367-.085.516-.13a.41.41 0 0 0 .29-.417l-.104-1.509a.405.405 0 0 0-.469-.372h-.005c-.256.038-.385.058-.539.046-.172-.014-.404-.034-.587-.197-.263-.237-.244-.615-.24-.683V2.712a.526.526 0 0 0-.528-.527h-1.637a.526.526 0 0 0-.527.527V17.01c-.012.2-.06 1.317.743 2.069.543.506 1.212.603 1.578.655Z"/><path fill-rule="evenodd" clip-rule="evenodd" d="M13.524 19.592h1.586c.371 0 .626-.37.492-.717L9.36 2.698a.525.525 0 0 0-.492-.338H6.771a.527.527 0 0 0-.492.338L.036 18.875a.527.527 0 0 0 .492.717h1.535a.527.527 0 0 0 .492-.337l1.297-3.36a.088.088 0 0 1 .082-.055h7.72a.09.09 0 0 1 .082.056l1.296 3.359a.528.528 0 0 0 .492.337Zm-8.673-6.278L7.7 5.883a.087.087 0 0 1 .163 0l2.872 7.43a.088.088 0 0 1-.082.119H4.934a.087.087 0 0 1-.083-.12Z"/><path d="M35.963 8.674c.904-1.242 2.431-2.226 4.58-2.226 3 0 4.604 1.889 4.604 5.096v7.52a.526.526 0 0 1-.527.526h-1.637a.526.526 0 0 1-.527-.527v-7.311c0-1.657-.803-2.795-2.665-2.795-1.63 0-2.872 1.008-3.234 2.484v7.622a.526.526 0 0 1-.528.527h-1.637a.526.526 0 0 1-.527-.527v-7.311c0-1.657-.803-2.795-2.665-2.795-1.63 0-2.872 1.008-3.234 2.484v7.622a.526.526 0 0 1-.527.527h-1.637a.526.526 0 0 1-.527-.527V9.967c0-.596-.311-.854-.827-.854a2 2 0 0 0-.148.005.53.53 0 0 1-.566-.49l-.088-1.314a.53.53 0 0 1 .378-.54c.311-.097.685-.17 1.25-.17 1.45 0 2.355.7 2.615 1.863.776-1.139 2.122-2.019 4.062-2.019 1.942 0 3.314.803 4.012 2.226Z"/><path fill-rule="evenodd" clip-rule="evenodd" d="M62.215 17.515c.246 0 .51-.053.756-.123.28-.088.58.07.667.35l.281.932a.534.534 0 0 1-.246.614 4.469 4.469 0 0 1-2.055.527c-1.528 0-2.828-.913-3.021-2.67-.93 1.757-2.67 2.67-4.883 2.67-4.005 0-6.235-3.109-6.235-6.674 0-3.566 2.178-6.78 6.2-6.78 2.196 0 3.83.913 4.655 2.477V7.204c0-.299.228-.527.527-.527h1.44c.298 0 .527.228.527.527v8.782c0 1.054.65 1.529 1.387 1.529Zm-12.207-4.427c0 2.617 1.651 4.444 4.11 4.444 2.424 0 4.163-1.81 4.163-4.444s-1.704-4.444-4.198-4.444c-2.67 0-4.075 2.038-4.075 4.444Z"/></g><defs><clipPath id="a"><path fill="#fff" d="M0 0h64v22H0z"/></clipPath></defs></svg>
